public/img/instagramIcon.svg

<svg width="37" height="38" viewBox="0 0 37 38" fill="none" xmlns="http://www.w3.org/2000/svg">
<g id="Group 7">
<circle id="Ellipse 6" cx="18.25" cy="18.8799" r="18.25" fill="#F0EFEA"/>
<g id="Social Media / Small / Dark / Instagram">
<path id="Shape" fillRule="evenodd" clipRule="evenodd" d="M23.8979 10.3408H13.0192C11.2828 10.3408 9.87012 11.7535 9.87012 13.4899V24.3686C9.87012 26.105 11.2828 27.5181 13.0192 27.5181H23.8979C25.6343 27.5181 27.0474 26.1054 27.0474 24.3686V13.4899C27.0474 11.7535 25.6347 10.3408 23.8979 10.3408ZM18.4585 24.5845C15.3407 24.5845 12.804 22.0478 12.804 18.9296C12.804 15.8118 15.3407 13.2751 18.4585 13.2751C21.5767 13.2751 24.1133 15.8118 24.1133 18.9296C24.1133 22.0474 21.5763 24.5845 18.4585 24.5845ZM22.9568 13.106C22.9568 13.8436 23.5571 14.4438 24.2951 14.4438C25.0328 14.4438 25.633 13.8436 25.633 13.106C25.633 12.3683 25.0328 11.7681 24.2951 11.7681C23.5571 11.7681 22.9568 12.3683 22.9568 13.106Z" fill="#015F26"/>
<path id="Shape_2" d="M18.4578 15.6641C16.6579 15.6641 15.1924 17.1288 15.1924 18.9286C15.1924 20.7293 16.6579 22.1944 18.4578 22.1944C20.2584 22.1944 21.7228 20.7293 21.7228 18.9286C21.7228 17.1292 20.258 15.6641 18.4578 15.6641Z" fill="#015F26"/>
<path id="Shape_3" fillRule="evenodd" clipRule="evenodd" d="M0.208008 18.8799C0.208008 8.80109 8.37921 0.629883 18.458 0.629883C28.5368 0.629883 36.708 8.80109 36.708 18.8799C36.708 28.9587 28.5368 37.1299 18.458 37.1299C8.37921 37.1299 0.208008 28.9587 0.208008 18.8799ZM23.8974 29.9071C26.9517 29.9071 29.4359 27.4228 29.4359 24.3685V13.4898C29.4359 10.4359 26.9517 7.95127 23.8974 7.95127H13.0187C9.96475 7.95127 7.48012 10.4359 7.48012 13.4898V24.3685C7.48012 27.4228 9.96475 29.9071 13.0187 29.9071H23.8974Z" fill="#015F26"/>
</g>
</g>
</svg>

<svg width="37" height="38" fill="none" xmlns="http://www.w3.org/2000/svg"><circle cx="18.25" cy="18.88" r="18.25" fill="#F0EFEA"/><g fill="#015F26"><path d="M23.898 10.34H13.019a3.153 3.153 0 0 0-3.149 3.15v10.879a3.153 3.153 0 0 0 3.15 3.15h10.878a3.153 3.153 0 0 0 3.15-3.15v-10.88a3.153 3.153 0 0 0-3.15-3.148Zm-5.44 14.244a5.661 5.661 0 0 1-5.654-5.654 5.661 5.661 0 0 1 5.655-5.655 5.661 5.661 0 0 1 5.654 5.655 5.662 5.662 0 0 1-5.654 5.654Zm4.499-11.478a1.34 1.34 0 0 0 2.676 0 1.34 1.34 0 0 0-2.676 0Z"/><path d="M18.458 15.664a3.27 3.27 0 0 0-3.266 3.265 3.27 3.27 0 0 0 3.266 3.265c1.8 0 3.265-1.465 3.265-3.265s-1.465-3.265-3.265-3.265Z"/><path d="M.208 18.88C.208 8.8 8.379.63 18.458.63s18.25 8.171 18.25 18.25-8.171 18.25-18.25 18.25S.208 28.959.208 18.88Zm23.69 11.027a5.544 5.544 0 0 0 5.538-5.538v-10.88a5.545 5.545 0 0 0-5.539-5.538H13.02a5.545 5.545 0 0 0-5.54 5.539v10.879a5.545 5.545 0 0 0 5.539 5.538h10.878Z"/></g></svg>
